talos/src/assets/images/category/npc.svg

<?xml version="1.0" encoding="UTF-8"?>
<svg xmlns="http://www.w3.org/2000/svg" viewBox="0 0 794.3817 705.4945">
    <rect class="d" x="295.2239" y="42.8643" width="221.323" height="221.323" rx="7.1779" ry="7.1779" transform="translate(10.3214 331.9698) rotate(-45)"/>
    <path class="d" d="M792.5379,391.945l-60.5597-67.2563c-2.6526-2.9459-7.1911-3.1838-10.1371-.5312l-195.3842,175.9254c-1.3182,1.1869-3.0292,1.8437-4.803,1.8437h-141.3553c-3.9643,0-7.1779-3.2137-7.1779-7.1779v-39.7137c0-3.9643,3.2137-7.1779,7.1779-7.1779h125.3287c3.9643,0,7.1779-3.2137,7.1779-7.1779v-90.53c0-3.9623-3.2106-7.1751-7.1729-7.1779l-307.1179-.2166c-1.6893-.0012-3.3249.5935-4.6189,1.6793L2.5642,504.9806c-3.0368,2.5482-3.4329,7.0757-.8847,10.1125l157.6142,187.8372c2.5482,3.0368,7.0757,3.4329,10.1125.8847l97.2615-81.6133c1.2927-1.0848,2.9263-1.6793,4.6139-1.6793h272.7611c1.7605,0,3.4597-.647,4.7743-1.818l243.161-216.5963c2.9714-2.6468,3.2226-7.2058.5598-10.1629Z"/>
</svg>

<svg width="795" height="706" viewBox="0 0 795 706" fill="none" xmlns="http://www.w3.org/2000/svg">
<path d="M400.81 2.10254L254.462 148.45C251.659 151.253 251.659 155.798 254.462 158.601L400.809 304.949C403.613 307.753 408.157 307.753 410.96 304.949L557.309 158.602C560.112 155.799 560.112 151.254 557.309 148.451L410.962 2.10258C408.158 -0.700572 403.614 -0.700598 400.81 2.10254Z"/>
<path d="M792.538 391.945L731.978 324.689C729.326 321.743 724.787 321.505 721.841 324.157L526.457 500.083C525.139 501.27 523.428 501.927 521.654 501.927H380.299C376.334 501.927 373.121 498.713 373.121 494.749V455.035C373.121 451.071 376.334 447.857 380.299 447.857H505.627C509.592 447.857 512.805 444.643 512.805 440.679V350.149C512.805 346.187 509.595 342.974 505.632 342.971L198.514 342.755C196.825 342.753 195.189 343.348 193.895 344.434L2.5642 504.981C-0.472595 507.529 -0.868695 512.056 1.6795 515.093L159.294 702.93C161.842 705.967 166.369 706.363 169.406 703.815L266.668 622.202C267.96 621.117 269.594 620.522 271.282 620.522H544.043C545.803 620.522 547.502 619.875 548.817 618.704L791.978 402.108C794.949 399.461 795.201 394.902 792.538 391.945Z"/>
</svg>
